images/Pagination-3.svg

<svg width="55" height="55" viewBox="0 0 55 55" fill="none" xmlns="http://www.w3.org/2000/svg">
<rect x="0.5" y="0.5" width="54" height="54" rx="3.5" fill="#82B3D3" stroke="#82B3D3"/>
<path d="M26.1462 32.08C26.9728 32.08 27.5995 31.86 28.0262 31.42C28.4662 30.98 28.6862 30.4467 28.6862 29.82C28.6862 29.06 28.4595 28.5 28.0062 28.14C27.5528 27.78 26.8395 27.6 25.8662 27.6H24.4262V26.22L26.8462 22.92L27.9862 22.02L26.4062 22.2H23.0462V20H30.6862V21.42L27.8662 25.2L26.9862 25.74V25.84L27.8262 25.72C28.2928 25.76 28.7328 25.8667 29.1462 26.04C29.5728 26.2133 29.9395 26.4667 30.2462 26.8C30.5662 27.12 30.8195 27.52 31.0062 28C31.1928 28.48 31.2862 29.0333 31.2862 29.66C31.2862 30.4467 31.1528 31.1267 30.8862 31.7C30.6328 32.2733 30.2728 32.7533 29.8062 33.14C29.3528 33.5267 28.8195 33.8133 28.2062 34C27.5928 34.1867 26.9328 34.28 26.2262 34.28C25.6395 34.28 25.0328 34.2267 24.4062 34.12C23.7795 34.0133 23.2728 33.86 22.8862 33.66L23.5862 31.5C23.9328 31.6733 24.3128 31.8133 24.7262 31.92C25.1528 32.0267 25.6262 32.08 26.1462 32.08Z" fill="white"/>
</svg>

<svg width="55" height="55" fill="none" xmlns="http://www.w3.org/2000/svg"><rect x=".5" y=".5" width="54" height="54" rx="3.5" fill="#82B3D3" stroke="#82B3D3"/><path d="M26.15 32.08c.82 0 1.45-.22 1.88-.66.44-.44.66-.97.66-1.6 0-.76-.23-1.32-.68-1.68-.46-.36-1.17-.54-2.14-.54h-1.44v-1.38l2.42-3.3 1.14-.9-1.58.18h-3.36V20h7.64v1.42l-2.82 3.78-.88.54v.1l.84-.12c.46.04.9.15 1.32.32A3.43 3.43 0 0 1 31 28c.18.48.28 1.03.28 1.66a4.8 4.8 0 0 1-.4 2.04 3.88 3.88 0 0 1-1.08 1.44c-.46.39-.99.67-1.6.86-.62.19-1.28.28-1.98.28-.59 0-1.2-.05-1.82-.16a5.27 5.27 0 0 1-1.52-.46l.7-2.16a5.76 5.76 0 0 0 2.56.58Z" fill="#fff"/></svg>
